X:2463
T:Polska från Kalmar
T:Svenska Folkdansar H2 nr 12
O:Kalmar
B:Traditioner av Svenska Folkdansar Häfte 2, nr 12
R:Polska
Z:Nils L
M:3/4
L:1/8
K:Dm
d>e f>e d^c | d2>e2fa | d>e f>e d>^c | d2 A4 |
f2 f2 {ef}g2 | f4 {ab}c'2 | c'>b a>g f>e | f4 F2 ::
{ab}c'2 a2 ^f2 | g>^f g>a g2 | {ga}b2 g2 e2 | f>e d>^c d2 |
{d/}d'>^c' d'2 a2 | {d/}d'>^c' d'2 a2 | {ag}b2 a>g f>e | d4 D2 :|
(:musicend:)
(:music:)
